dist/img/calc_svg/coub.svg

<svg width="20" height="20" viewBox="0 0 20 20" fill="none" xmlns="http://www.w3.org/2000/svg">
<path d="M17.435 6.34583C17.3925 6.24417 17.3308 6.1525 17.2542 6.07667L13.9217 2.74417C13.7667 2.5875 13.555 2.5 13.3333 2.5H3.33333C3.225 2.5 3.11667 2.52167 3.015 2.56417C2.81083 2.64833 2.64833 2.81083 2.56417 3.015C2.52167 3.11667 2.5 3.225 2.5 3.33333V13.3333C2.5 13.555 2.5875 13.7667 2.74417 13.9225L6.07667 17.255C6.15333 17.3317 6.24417 17.3933 6.34583 17.4358C6.44667 17.4775 6.555 17.5 6.66667 17.5H16.6667C17.1275 17.5 17.5 17.1275 17.5 16.6667V6.66667C17.5 6.555 17.4775 6.44667 17.435 6.34583ZM14.655 5.83333H7.01167L5.345 4.16667H12.9883L14.655 5.83333ZM4.16667 5.345L5.83333 7.01167V14.655L4.16667 12.9883V5.345Z" fill="white"/>
</svg>

<svg width="20" height="20" viewBox="0 0 20 20" fill="none" xmlns="http://www.w3.org/2000/svg"><path d="M17.435 6.346a.829.829 0 00-.18-.27l-3.333-3.332a.826.826 0 00-.589-.244h-10a.83.83 0 00-.833.833v10a.83.83 0 00.244.59l3.333 3.332a.836.836 0 00.59.245h10c.46 0 .833-.372.833-.833v-10a.824.824 0 00-.065-.321zm-2.78-.513H7.012L5.345 4.167h7.643l1.667 1.666zM4.167 5.345l1.666 1.667v7.643l-1.666-1.667V5.345z" fill="#fff"/></svg>
